;Generated with Cura_SteamEngine 15.01
; Default start code
G28 ; Home extruder
G1 Z15 F100
M107 ; Turn off fan
G90 ; Absolute positioning
M82 ; Extruder in absolute mode
M190 S20
; Activate all used extruder
M104 T0 S19
G92 E0 ; Reset extruder position
; Wait for all used extruders to reach temperature
M109 T0 S19
;Layer count: 3
;LAYER:0
M107
G0 F6000 X8.921 Y7.449 Z0.300
;TYPE:SKIRT
G1 F2100 X48.521 Y7.449 E1.97565
G1 X48.521 Y47.049 E3.95130
G1 X8.921 Y47.049 E5.92696
G1 X8.921 Y7.449 E7.90261
G0 F6000 X9.321 Y7.849
G1 F2100 X48.121 Y7.849 E9.83835
G1 X48.121 Y46.649 E11.77409
G1 X9.321 Y46.649 E13.70983
G1 X9.321 Y7.849 E15.64557
G0 F6000 X9.721 Y8.249
G1 F2100 X47.721 Y8.249 E17.54140
G1 X47.721 Y46.249 E19.43722
G1 X9.721 Y46.249 E21.33305
G1 X9.721 Y8.249 E23.22888
G0 F6000 X10.121 Y8.649
G1 F2100 X47.321 Y8.649 E25.08479
G1 X47.321 Y45.849 E26.94071
G1 X10.121 Y45.849 E28.79662
G1 X10.121 Y8.649 E30.65254
G0 F6000 X10.521 Y9.049
G1 F2100 X46.921 Y9.049 E32.46854
G1 X46.921 Y45.449 E34.28455
G1 X10.521 Y45.449 E36.10055
G1 X10.521 Y9.049 E37.91655
G0 F6000 X10.921 Y9.449
G1 F2100 X46.521 Y9.449 E39.69265
G1 X46.521 Y45.049 E41.46874
G1 X10.921 Y45.049 E43.24483
G1 X10.921 Y9.449 E45.02092
G0 F6000 X11.321 Y9.849
G1 F2100 X46.121 Y9.849 E46.75710
G1 X46.121 Y44.649 E48.49328
G1 X11.321 Y44.649 E50.22946
G1 X11.321 Y9.849 E51.96563
G0 F6000 X11.721 Y10.249
G1 F2100 X45.721 Y10.249 E53.66190
G1 X45.721 Y44.249 E55.35817
G1 X11.721 Y44.249 E57.05444
G1 X11.721 Y10.249 E58.75070
G0 F6000 X12.121 Y10.649
G1 F2100 X45.321 Y10.649 E60.40706
G1 X45.321 Y43.849 E62.06341
G1 X12.121 Y43.849 E63.71977
G1 X12.121 Y10.649 E65.37612
G0 F6000 X12.521 Y11.049
G1 F2100 X44.921 Y11.049 E66.99256
G1 X44.921 Y43.449 E68.60901
G1 X12.521 Y43.449 E70.22545
G1 X12.521 Y11.049 E71.84189
G0 F6000 X12.921 Y11.449
G1 F2100 X44.521 Y11.449 E73.41842
G1 X44.521 Y43.049 E74.99495
G1 X12.921 Y43.049 E76.57148
G1 X12.921 Y11.449 E78.14801
G0 F6000 X13.321 Y11.849
G1 F2100 X44.121 Y11.849 E79.68463
G1 X44.121 Y42.649 E81.22125
G1 X13.321 Y42.649 E82.75787
G1 X13.321 Y11.849 E84.29449
G0 F6000 X13.721 Y12.249
G1 F2100 X43.721 Y12.249 E85.79119
G1 X43.721 Y42.249 E87.28790
G1 X13.721 Y42.249 E88.78460
G1 X13.721 Y12.249 E90.28131
G0 F6000 X14.121 Y12.649
G1 F2100 X43.321 Y12.649 E91.73810
G1 X43.321 Y41.849 E93.19490
G1 X14.121 Y41.849 E94.65169
G1 X14.121 Y12.649 E96.10849
G0 F6000 X14.521 Y13.049
G1 F2100 X42.921 Y13.049 E97.52537
G1 X42.921 Y41.449 E98.94225
G1 X14.521 Y41.449 E100.35913
G1 X14.521 Y13.049 E101.77601
G0 F6000 X14.921 Y13.449
G1 F2100 X42.521 Y13.449 E103.15298
G1 X42.521 Y41.049 E104.52995
G1 X14.921 Y41.049 E105.90692
G1 X14.921 Y13.449 E107.28389
G0 F6000 X15.321 Y13.849
G1 F2100 X42.121 Y13.849 E108.62095
G1 X42.121 Y40.649 E109.95801
G1 X15.321 Y40.649 E111.29506
G1 X15.321 Y13.849 E112.63212
G0 F6000 X15.721 Y14.249
G1 F2100 X41.721 Y14.249 E113.92927
G1 X41.721 Y40.249 E115.22641
G1 X15.721 Y40.249 E116.52356
G1 X15.721 Y14.249 E117.82070
G0 F6000 X16.121 Y14.649
G1 F2100 X41.321 Y14.649 E119.07794
G1 X41.321 Y39.849 E120.33517
G1 X16.121 Y39.849 E121.59240
G1 X16.121 Y14.649 E122.84963
G0 F6000 X16.521 Y15.049
G1 F2100 X40.921 Y15.049 E124.06696
G1 X40.921 Y39.449 E125.28428
G1 X16.521 Y39.449 E126.50160
G1 X16.521 Y15.049 E127.71892
G0 F6000 X16.921 Y15.449
G1 F2100 X40.521 Y15.449 E128.89633
G1 X40.521 Y39.049 E130.07374
G1 X16.921 Y39.049 E131.25114
G1 X16.921 Y15.449 E132.42855
G0 F6000 X17.321 Y15.849
G1 F2100 X40.121 Y15.849 E133.56605
G1 X40.121 Y38.649 E134.70355
G1 X17.321 Y38.649 E135.84104
G1 X17.321 Y15.849 E136.97854
G0 F6000 X17.721 Y16.249
G1 F2100 X39.721 Y16.249 E138.07612
G1 X39.721 Y38.249 E139.17371
G1 X17.721 Y38.249 E140.27129
G1 X17.721 Y16.249 E141.36888
G0 F6000 X18.121 Y16.649
G1 F2100 X39.321 Y16.649 E142.42655
G1 X39.321 Y37.849 E143.48422
G1 X18.121 Y37.849 E144.54189
G1 X18.121 Y16.649 E145.59957
G0 F6000 X18.521 Y17.049
G1 F2100 X38.921 Y17.049 E146.61733
G1 X38.921 Y37.449 E147.63509
G1 X18.521 Y37.449 E148.65285
G1 X18.521 Y17.049 E149.67061
G0 F6000 X19.321 Y17.849
;TYPE:WALL-INNER
G1 F2100 X38.121 Y17.849 E150.60854
G1 X38.121 Y36.649 E151.54648
G1 X19.321 Y36.649 E152.48442
G1 X19.321 Y17.849 E153.42235
G0 F6000 X18.921 Y17.449
;TYPE:WALL-OUTER
G1 F2100 X38.521 Y17.449 E154.40020
G1 X38.521 Y37.049 E155.37805
G1 X18.921 Y37.049 E156.35589
G1 X18.921 Y17.449 E157.33374
G0 F6000 X19.460 Y18.046
;TYPE:SKIN
G1 F2100 X37.922 Y36.508 E158.63634
G0 F6000 X37.980 Y36.000
G1 F2100 X19.969 Y17.989 E159.90711
G0 F6000 X19.460 Y18.611
G1 F2100 X37.357 Y36.508 E161.16984
G0 F6000 X36.791 Y36.508
G1 F2100 X19.460 Y19.177 E162.39264
G0 F6000 X19.460 Y19.743
G1 F2100 X36.225 Y36.508 E163.57550
G0 F6000 X35.660 Y36.508
G1 F2100 X19.460 Y20.308 E164.71849
G0 F6000 X19.460 Y20.874
G1 F2100 X35.094 Y36.508 E165.82156
G0 F6000 X34.528 Y36.508
G1 F2100 X19.460 Y21.440 E166.88469
G0 F6000 X19.460 Y22.005
G1 F2100 X33.963 Y36.508 E167.90795
G0 F6000 X33.397 Y36.508
G1 F2100 X19.460 Y22.571 E168.89128
G0 F6000 X19.460 Y23.137
G1 F2100 X32.831 Y36.508 E169.83468
G0 F6000 X32.265 Y36.508
G1 F2100 X19.460 Y23.702 E170.73818
G0 F6000 X19.460 Y24.268
G1 F2100 X31.700 Y36.508 E171.60177
G0 F6000 X31.134 Y36.508
G1 F2100 X19.460 Y24.834 E172.42544
G0 F6000 X19.460 Y25.399
G1 F2100 X30.568 Y36.508 E173.20920
G0 F6000 X30.003 Y36.508
G1 F2100 X19.460 Y25.965 E173.95307
G0 F6000 X19.460 Y26.531
G1 F2100 X29.437 Y36.508 E174.65700
G0 F6000 X28.871 Y36.508
G1 F2100 X19.460 Y27.097 E175.32100
G0 F6000 X19.460 Y27.662
G1 F2100 X28.305 Y36.507 E175.94506
G0 F6000 X27.739 Y36.507
G1 F2100 X19.460 Y28.228 E176.52919
G0 F6000 X19.460 Y28.794
G1 F2100 X27.174 Y36.507 E177.07342
G0 F6000 X26.608 Y36.507
G1 F2100 X19.460 Y29.359 E177.57775
G0 F6000 X19.460 Y29.925
G1 F2100 X26.042 Y36.507 E178.04214
G0 F6000 X25.477 Y36.507
G1 F2100 X19.460 Y30.491 E178.46664
G0 F6000 X19.460 Y31.056
G1 F2100 X24.911 Y36.507 E178.85124
G0 F6000 X24.345 Y36.507
G1 F2100 X19.460 Y31.622 E179.19590
G0 F6000 X19.460 Y32.188
G1 F2100 X23.780 Y36.507 E179.50066
G0 F6000 X23.214 Y36.507
G1 F2100 X19.460 Y32.753 E179.76553
G0 F6000 X19.460 Y33.319
G1 F2100 X22.648 Y36.507 E179.99046
G0 F6000 X22.082 Y36.507
G1 F2100 X19.460 Y33.885 E180.17545
G0 F6000 X19.460 Y34.450
G1 F2100 X21.517 Y36.507 E180.32059
G0 F6000 X20.951 Y36.507
G1 F2100 X19.460 Y35.016 E180.42578
G0 F6000 X19.460 Y35.582
G1 F2100 X20.385 Y36.507 E180.49105
G0 F6000 X37.980 Y35.434
G1 F2100 X20.535 Y17.989 E181.72189
G0 F6000 X21.100 Y17.989
G1 F2100 X37.980 Y34.868 E182.91283
G0 F6000 X37.980 Y34.303
G1 F2100 X21.666 Y17.989 E184.06387
G0 F6000 X22.232 Y17.989
G1 F2100 X37.980 Y33.737 E185.17497
G0 F6000 X37.980 Y33.171
G1 F2100 X22.797 Y17.989 E186.24618
G0 F6000 X23.363 Y17.989
G1 F2100 X37.980 Y32.606 E187.27749
G0 F6000 X37.980 Y32.040
G1 F2100 X23.929 Y17.989 E188.26886
G0 F6000 X24.494 Y17.989
G1 F2100 X37.980 Y31.474 E189.22034
G0 F6000 X37.980 Y30.909
G1 F2100 X25.060 Y17.989 E190.13191
G0 F6000 X25.626 Y17.989
G1 F2100 X37.980 Y30.343 E191.00356
G0 F6000 X37.980 Y29.777
G1 F2100 X26.191 Y17.989 E191.83530
G0 F6000 X26.757 Y17.989
G1 F2100 X37.980 Y29.211 E192.62711
G0 F6000 X37.980 Y28.646
G1 F2100 X27.323 Y17.989 E193.37902
G0 F6000 X27.888 Y17.989
G1 F2100 X37.980 Y28.080 E194.09103
G0 F6000 X37.980 Y27.514
G1 F2100 X28.454 Y17.989 E194.76310
G0 F6000 X29.020 Y17.989
G1 F2100 X37.980 Y26.949 E195.39528
G0 F6000 X37.980 Y26.383
G1 F2100 X29.586 Y17.989 E195.98752
G0 F6000 X30.151 Y17.989
G1 F2100 X37.980 Y25.817 E196.53986
G0 F6000 X37.980 Y25.252
G1 F2100 X30.717 Y17.989 E197.05231
G0 F6000 X31.283 Y17.989
G1 F2100 X37.980 Y24.686 E197.52482
G0 F6000 X37.980 Y24.120
G1 F2100 X31.848 Y17.989 E197.95743
G0 F6000 X32.414 Y17.989
G1 F2100 X37.980 Y23.555 E198.35014
G0 F6000 X37.980 Y22.989
G1 F2100 X32.980 Y17.989 E198.70291
G0 F6000 X33.545 Y17.989
G1 F2100 X37.980 Y22.423 E199.01579
G0 F6000 X37.980 Y21.858
G1 F2100 X34.111 Y17.989 E199.28877
G0 F6000 X34.677 Y17.989
G1 F2100 X37.980 Y21.292 E199.52182
G0 F6000 X37.980 Y20.726
G1 F2100 X35.242 Y17.989 E199.71496
G0 F6000 X35.808 Y17.989
G1 F2100 X37.980 Y20.161 E199.86821
G0 F6000 X37.980 Y19.595
G1 F2100 X36.374 Y17.989 E199.98152
G0 F6000 X36.939 Y17.989
G1 F2100 X37.980 Y19.029 E200.05493
G0 F6000 X37.980 Y18.463
G1 F2100 X37.505 Y17.989 E200.08841
G0 F6000 X19.460 Y36.148
G1 F2100 X19.820 Y36.507 E200.11378
;LAYER:1
M106 S127
G0 F6000 X19.321 Y36.649 Z0.600
;TYPE:WALL-INNER
G1 F2160 X19.321 Y17.849 E201.05171
G1 X38.121 Y17.849 E201.98965
G1 X38.121 Y36.649 E202.92758
G1 X19.321 Y36.649 E203.86552
G0 F6000 X18.921 Y37.049
;TYPE:WALL-OUTER
G1 F2040 X18.921 Y17.449 E204.84337
G1 X38.521 Y17.449 E205.82121
G1 X38.521 Y37.049 E206.79906
G1 X18.921 Y37.049 E207.77691
G0 F6000 X19.460 Y36.259
;TYPE:SKIN
G1 F2040 X37.731 Y17.988 E209.06603
G0 F6000 X37.980 Y18.305
G1 F2040 X19.777 Y36.508 E210.35035
G0 F6000 X19.460 Y35.693
G1 F2040 X37.165 Y17.988 E211.59953
G0 F6000 X36.599 Y17.988
G1 F2040 X19.460 Y35.127 E212.80878
G0 F6000 X19.460 Y34.561
G1 F2040 X36.034 Y17.988 E213.97813
G0 F6000 X35.468 Y17.988
G1 F2040 X19.460 Y33.996 E215.10758
G0 F6000 X19.460 Y33.430
G1 F2040 X34.902 Y17.988 E216.19710
G0 F6000 X34.337 Y17.988
G1 F2040 X19.460 Y32.864 E217.24672
G0 F6000 X19.460 Y32.299
G1 F2040 X33.771 Y17.988 E218.25643
G0 F6000 X33.205 Y17.988
G1 F2040 X19.460 Y31.733 E219.22622
G0 F6000 X19.460 Y31.167
G1 F2040 X32.640 Y17.988 E220.15610
G0 F6000 X32.074 Y17.988
G1 F2040 X19.460 Y30.602 E221.04609
G0 F6000 X19.460 Y30.036
G1 F2040 X31.508 Y17.988 E221.89614
G0 F6000 X30.942 Y17.988
G1 F2040 X19.460 Y29.470 E222.70626
G0 F6000 X19.460 Y28.905
G1 F2040 X30.377 Y17.988 E223.47651
G0 F6000 X29.811 Y17.988
G1 F2040 X19.460 Y28.339 E224.20683
G0 F6000 X19.460 Y27.773
G1 F2040 X29.245 Y17.988 E224.89721
G0 F6000 X28.680 Y17.988
G1 F2040 X19.460 Y27.208 E225.54773
G0 F6000 X19.460 Y26.642
G1 F2040 X28.114 Y17.988 E226.15832
G0 F6000 X27.548 Y17.988
G1 F2040 X19.460 Y26.076 E226.72897
G0 F6000 X19.460 Y25.510
G1 F2040 X26.983 Y17.988 E227.25973
G0 F6000 X26.417 Y17.988
G1 F2040 X19.460 Y24.945 E227.75058
G0 F6000 X19.460 Y24.379
G1 F2040 X25.851 Y17.988 E228.20150
G0 F6000 X25.286 Y17.988
G1 F2040 X19.460 Y23.813 E228.61252
G0 F6000 X19.460 Y23.248
G1 F2040 X24.720 Y17.988 E228.98364
G0 F6000 X24.154 Y17.988
G1 F2040 X19.460 Y22.682 E229.31483
G0 F6000 X19.460 Y22.116
G1 F2040 X23.589 Y17.988 E229.60612
G0 F6000 X23.023 Y17.988
G1 F2040 X19.460 Y21.551 E229.85751
G0 F6000 X19.460 Y20.985
G1 F2040 X22.457 Y17.988 E230.06896
G0 F6000 X21.892 Y17.988
G1 F2040 X19.460 Y20.419 E230.24052
G0 F6000 X19.460 Y19.854
G1 F2040 X21.326 Y17.988 E230.37217
G0 F6000 X20.760 Y17.988
G1 F2040 X19.460 Y19.288 E230.46389
G0 F6000 X19.460 Y18.722
G1 F2040 X20.194 Y17.988 E230.51568
G0 F6000 X37.980 Y18.871
G1 F2040 X20.342 Y36.508 E231.76010
G0 F6000 X20.908 Y36.508
G1 F2040 X37.980 Y19.436 E232.96462
G0 F6000 X37.980 Y20.002
G1 F2040 X21.474 Y36.508 E234.12921
G0 F6000 X22.039 Y36.508
G1 F2040 X37.980 Y20.568 E235.25390
G0 F6000 X37.980 Y21.134
G1 F2040 X22.605 Y36.508 E236.33865
G0 F6000 X23.171 Y36.508
G1 F2040 X37.980 Y21.699 E237.38351
G0 F6000 X37.980 Y22.265
G1 F2040 X23.736 Y36.508 E238.38847
G0 F6000 X24.302 Y36.508
G1 F2040 X37.980 Y22.831 E239.35349
G0 F6000 X37.980 Y23.396
G1 F2040 X24.868 Y36.508 E240.27861
G0 F6000 X25.433 Y36.508
G1 F2040 X37.980 Y23.962 E241.16383
G0 F6000 X37.980 Y24.528
G1 F2040 X25.999 Y36.508 E242.00912
G0 F6000 X26.565 Y36.508
G1 F2040 X37.980 Y25.093 E242.81451
G0 F6000 X37.980 Y25.659
G1 F2040 X27.130 Y36.508 E243.58000
G0 F6000 X27.696 Y36.508
G1 F2040 X37.980 Y26.225 E244.30556
G0 F6000 X37.980 Y26.790
G1 F2040 X28.262 Y36.508 E244.99122
G0 F6000 X28.827 Y36.509
G1 F2040 X37.980 Y27.356 E245.63701
G0 F6000 X37.980 Y27.922
G1 F2040 X29.393 Y36.509 E246.24287
G0 F6000 X29.958 Y36.509
G1 F2040 X37.980 Y28.487 E246.80886
G0 F6000 X37.980 Y29.053
G1 F2040 X30.524 Y36.509 E247.33493
G0 F6000 X31.090 Y36.509
G1 F2040 X37.980 Y29.619 E247.82105
G0 F6000 X37.980 Y30.184
G1 F2040 X31.655 Y36.509 E248.26731
G0 F6000 X32.221 Y36.509
G1 F2040 X37.980 Y30.750 E248.67364
G0 F6000 X37.980 Y31.316
G1 F2040 X32.787 Y36.509 E249.04004
G0 F6000 X33.352 Y36.509
G1 F2040 X37.980 Y31.882 E249.36653
G0 F6000 X37.980 Y32.447
G1 F2040 X33.918 Y36.509 E249.65313
G0 F6000 X34.484 Y36.509
G1 F2040 X37.980 Y33.013 E249.89979
G0 F6000 X37.980 Y33.579
G1 F2040 X35.049 Y36.509 E250.10655
G0 F6000 X35.615 Y36.509
G1 F2040 X37.980 Y34.144 E250.27342
G0 F6000 X37.980 Y34.710
G1 F2040 X36.181 Y36.509 E250.40035
G0 F6000 X36.746 Y36.509
G1 F2040 X37.980 Y35.276 E250.48738
G0 F6000 X37.980 Y35.841
G1 F2040 X37.312 Y36.509 E250.53451
G0 F6000 X37.878 Y36.509
G1 F2040 X37.980 Y36.407 E250.54170
G0 F6000 X19.629 Y17.988
G1 F2040 X19.460 Y18.157 E250.55363
;LAYER:2
G0 F6000 X19.321 Y17.849 Z0.900
;TYPE:WALL-INNER
G1 F2220 X38.121 Y17.849 E251.49156
G1 X38.121 Y36.649 E252.42950
G1 X19.321 Y36.649 E253.36743
G1 X19.321 Y17.849 E254.30537
G0 F6000 X18.921 Y17.449
;TYPE:WALL-OUTER
G1 F2040 X38.521 Y17.449 E255.28322
G1 X38.521 Y37.049 E256.26107
G1 X18.921 Y37.049 E257.23891
G1 X18.921 Y17.449 E258.21676
G0 F6000 X19.460 Y18.046
;TYPE:SKIN
G1 F2040 X37.922 Y36.508 E259.51936
G0 F6000 X37.980 Y36.000
G1 F2040 X19.969 Y17.989 E260.79013
G0 F6000 X19.460 Y18.611
G1 F2040 X37.357 Y36.508 E262.05286
G0 F6000 X36.791 Y36.508
G1 F2040 X19.460 Y19.177 E263.27566
G0 F6000 X19.460 Y19.743
G1 F2040 X36.225 Y36.508 E264.45852
G0 F6000 X35.660 Y36.508
G1 F2040 X19.460 Y20.308 E265.60151
G0 F6000 X19.460 Y20.874
G1 F2040 X35.094 Y36.508 E266.70458
G0 F6000 X34.528 Y36.508
G1 F2040 X19.460 Y21.440 E267.76771
G0 F6000 X19.460 Y22.005
G1 F2040 X33.963 Y36.508 E268.79097
G0 F6000 X33.397 Y36.508
G1 F2040 X19.460 Y22.571 E269.77430
G0 F6000 X19.460 Y23.137
G1 F2040 X32.831 Y36.508 E270.71770
G0 F6000 X32.265 Y36.508
G1 F2040 X19.460 Y23.702 E271.62120
G0 F6000 X19.460 Y24.268
G1 F2040 X31.700 Y36.508 E272.48479
G0 F6000 X31.134 Y36.508
G1 F2040 X19.460 Y24.834 E273.30846
G0 F6000 X19.460 Y25.399
G1 F2040 X30.568 Y36.508 E274.09222
G0 F6000 X30.003 Y36.508
G1 F2040 X19.460 Y25.965 E274.83609
G0 F6000 X19.460 Y26.531
G1 F2040 X29.437 Y36.508 E275.54002
G0 F6000 X28.871 Y36.508
G1 F2040 X19.460 Y27.097 E276.20402
G0 F6000 X19.460 Y27.662
G1 F2040 X28.305 Y36.507 E276.82808
G0 F6000 X27.739 Y36.507
G1 F2040 X19.460 Y28.228 E277.41221
G0 F6000 X19.460 Y28.794
G1 F2040 X27.174 Y36.507 E277.95644
G0 F6000 X26.608 Y36.507
G1 F2040 X19.460 Y29.359 E278.46077
G0 F6000 X19.460 Y29.925
G1 F2040 X26.042 Y36.507 E278.92516
G0 F6000 X25.477 Y36.507
G1 F2040 X19.460 Y30.491 E279.34966
G0 F6000 X19.460 Y31.056
G1 F2040 X24.911 Y36.507 E279.73425
G0 F6000 X24.345 Y36.507
G1 F2040 X19.460 Y31.622 E280.07892
G0 F6000 X19.460 Y32.188
G1 F2040 X23.780 Y36.507 E280.38368
G0 F6000 X23.214 Y36.507
G1 F2040 X19.460 Y32.753 E280.64855
G0 F6000 X19.460 Y33.319
G1 F2040 X22.648 Y36.507 E280.87348
G0 F6000 X22.082 Y36.507
G1 F2040 X19.460 Y33.885 E281.05847
G0 F6000 X19.460 Y34.450
G1 F2040 X21.517 Y36.507 E281.20361
G0 F6000 X20.951 Y36.507
G1 F2040 X19.460 Y35.016 E281.30880
G0 F6000 X19.460 Y35.582
G1 F2040 X20.385 Y36.507 E281.37407
G0 F6000 X37.980 Y35.434
G1 F2040 X20.535 Y17.989 E282.60491
G0 F6000 X21.100 Y17.989
G1 F2040 X37.980 Y34.868 E283.79585
G0 F6000 X37.980 Y34.303
G1 F2040 X21.666 Y17.989 E284.94689
G0 F6000 X22.232 Y17.989
G1 F2040 X37.980 Y33.737 E286.05799
G0 F6000 X37.980 Y33.171
G1 F2040 X22.797 Y17.989 E287.12920
G0 F6000 X23.363 Y17.989
