;Generated with Cura_SteamEngine 15.01
; Default start code
G28 ; Home extruder
G1 Z15 F100
M107 ; Turn off fan
G90 ; Absolute positioning
M82 ; Extruder in absolute mode
M190 S20
; Activate all used extruder
M104 T0 S19
G92 E0 ; Reset extruder position
; Wait for all used extruders to reach temperature
M109 T0 S19
;Layer count: 50
;LAYER:0
M107
G0 F6000 X20.838 Y20.463 Z0.200
;TYPE:SKIRT
G1 F2100 X90.438 Y20.463 E2.31491
G1 X90.438 Y90.063 E4.62981
G1 X20.838 Y90.063 E6.94472
G1 X20.838 Y20.463 E9.25962
G0 F6000 X21.238 Y20.863
G1 F2100 X90.038 Y20.863 E11.54792
G1 X90.038 Y89.663 E13.83622
G1 X21.238 Y89.663 E16.12451
G1 X21.238 Y20.863 E18.41281
G0 F6000 X21.638 Y21.263
G1 F2100 X89.638 Y21.263 E20.67450
G1 X89.638 Y89.263 E22.93619
G1 X21.638 Y89.263 E25.19788
G1 X21.638 Y21.263 E27.45957
G0 F6000 X22.038 Y21.663
G1 F2100 X89.238 Y21.663 E29.69465
G1 X89.238 Y88.863 E31.92973
G1 X22.038 Y88.863 E34.16481
G1 X22.038 Y21.663 E36.39989
G0 F6000 X22.438 Y22.063
G1 F2100 X88.838 Y22.063 E38.60836
G1 X88.838 Y88.463 E40.81684
G1 X22.438 Y88.463 E43.02531
G1 X22.438 Y22.063 E45.23378
G0 F6000 X22.838 Y22.463
G1 F2100 X88.438 Y22.463 E47.41565
G1 X88.438 Y88.063 E49.59751
G1 X22.838 Y88.063 E51.77938
G1 X22.838 Y22.463 E53.96124
G0 F6000 X23.238 Y22.863
G1 F2100 X88.038 Y22.863 E56.11650
G1 X88.038 Y87.663 E58.27176
G1 X23.238 Y87.663 E60.42701
G1 X23.238 Y22.863 E62.58227
G0 F6000 X23.638 Y23.263
G1 F2100 X87.638 Y23.263 E64.71092
G1 X87.638 Y87.263 E66.83957
G1 X23.638 Y87.263 E68.96822
G1 X23.638 Y23.263 E71.09686
G0 F6000 X24.038 Y23.663
G1 F2100 X87.238 Y23.663 E73.19891
G1 X87.238 Y86.863 E75.30095
G1 X24.038 Y86.863 E77.40299
G1 X24.038 Y23.663 E79.50503
G0 F6000 X24.438 Y24.063
G1 F2100 X86.838 Y24.063 E81.58046
G1 X86.838 Y86.463 E83.65589
G1 X24.438 Y86.463 E85.73132
G1 X24.438 Y24.063 E87.80676
G0 F6000 X24.838 Y24.463
G1 F2100 X86.438 Y24.463 E89.85558
G1 X86.438 Y86.063 E91.90441
G1 X24.838 Y86.063 E93.95323
G1 X24.838 Y24.463 E96.00205
G0 F6000 X25.238 Y24.863
G1 F2100 X86.038 Y24.863 E98.02427
G1 X86.038 Y85.663 E100.04649
G1 X25.238 Y85.663 E102.06870
G1 X25.238 Y24.863 E104.09092
G0 F6000 X25.638 Y25.263
G1 F2100 X85.638 Y25.263 E106.08653
G1 X85.638 Y85.263 E108.08213
G1 X25.638 Y85.263 E110.07774
G1 X25.638 Y25.263 E112.07335
G0 F6000 X26.038 Y25.663
G1 F2100 X85.238 Y25.663 E114.04235
G1 X85.238 Y84.863 E116.01135
G1 X26.038 Y84.863 E117.98035
G1 X26.038 Y25.663 E119.94935
G0 F6000 X26.438 Y26.063
G1 F2100 X84.838 Y26.063 E121.89174
G1 X84.838 Y84.463 E123.83413
G1 X26.438 Y84.463 E125.77653
G1 X26.438 Y26.063 E127.71892
G0 F6000 X26.838 Y26.463
G1 F2100 X84.438 Y26.463 E129.63470
G1 X84.438 Y84.063 E131.55049
G1 X26.838 Y84.063 E133.46627
G1 X26.838 Y26.463 E135.38205
G0 F6000 X27.238 Y26.863
G1 F2100 X84.038 Y26.863 E137.27123
G1 X84.038 Y83.663 E139.16041
G1 X27.238 Y83.663 E141.04958
G1 X27.238 Y26.863 E142.93876
G0 F6000 X27.638 Y27.263
G1 F2100 X83.638 Y27.263 E144.80132
G1 X83.638 Y83.263 E146.66389
G1 X27.638 Y83.263 E148.52646
G1 X27.638 Y27.263 E150.38903
G0 F6000 X28.038 Y27.663
G1 F2100 X83.238 Y27.663 E152.22499
G1 X83.238 Y82.863 E154.06095
G1 X28.038 Y82.863 E155.89690
G1 X28.038 Y27.663 E157.73286
G0 F6000 X28.438 Y28.063
G1 F2100 X82.838 Y28.063 E159.54222
G1 X82.838 Y82.463 E161.35157
G1 X28.438 Y82.463 E163.16092
G1 X28.438 Y28.063 E164.97027
G0 F6000 X28.838 Y28.463
G1 F2100 X82.438 Y28.463 E166.75301
G1 X82.438 Y82.063 E168.53576
G1 X28.838 Y82.063 E170.31850
G1 X28.838 Y28.463 E172.10124
G0 F6000 X29.238 Y28.863
G1 F2100 X82.038 Y28.863 E173.85738
G1 X82.038 Y81.663 E175.61351
G1 X29.238 Y81.663 E177.36965
G1 X29.238 Y28.863 E179.12578
G0 F6000 X29.638 Y29.263
G1 F2100 X81.638 Y29.263 E180.85531
G1 X81.638 Y81.263 E182.58484
G1 X29.638 Y81.263 E184.31436
G1 X29.638 Y29.263 E186.04389
G0 F6000 X30.038 Y29.663
G1 F2100 X81.238 Y29.663 E187.74681
G1 X81.238 Y80.863 E189.44973
G1 X30.038 Y80.863 E191.15265
G1 X30.038 Y29.663 E192.85557
G0 F6000 X30.438 Y30.063
G1 F2100 X80.838 Y30.063 E194.53188
G1 X80.838 Y80.463 E196.20819
G1 X30.438 Y80.463 E197.88450
G1 X30.438 Y30.063 E199.56081
G0 F6000 X31.238 Y30.863
;TYPE:WALL-INNER
G1 F2100 X80.038 Y30.863 E201.18390
G1 X80.038 Y79.663 E202.80700
G1 X31.238 Y79.663 E204.43009
G1 X31.238 Y30.863 E206.05319
G0 F6000 X30.838 Y30.463
;TYPE:WALL-OUTER
G1 F2100 X80.438 Y30.463 E207.70289
G1 X80.438 Y80.063 E209.35259
G1 X30.838 Y80.063 E211.00230
G1 X30.838 Y30.463 E212.65200
G0 F6000 X31.377 Y31.095
;TYPE:SKIN
G1 F2100 X79.804 Y79.521 E214.92983
G0 F6000 X79.897 Y79.048
G1 F2100 X31.851 Y31.003 E217.18975
G0 F6000 X32.417 Y31.003
G1 F2100 X79.897 Y78.483 E219.42306
G0 F6000 X79.897 Y77.917
G1 F2100 X32.982 Y31.003 E221.62977
G0 F6000 X33.548 Y31.003
G1 F2100 X79.897 Y77.351 E223.80987
G0 F6000 X79.897 Y76.786
G1 F2100 X34.114 Y31.003 E225.96336
G0 F6000 X34.680 Y31.003
G1 F2100 X79.897 Y76.220 E228.09023
G0 F6000 X79.897 Y75.654
G1 F2100 X35.245 Y31.003 E230.19050
G0 F6000 X35.811 Y31.003
G1 F2100 X79.897 Y75.089 E232.26417
G0 F6000 X79.897 Y74.523
G1 F2100 X36.377 Y31.003 E234.31121
G0 F6000 X36.942 Y31.003
G1 F2100 X79.897 Y73.957 E236.33166
G0 F6000 X79.897 Y73.392
G1 F2100 X37.508 Y31.003 E238.32551
G0 F6000 X38.074 Y31.003
G1 F2100 X79.897 Y72.826 E240.29274
G0 F6000 X79.897 Y72.260
G1 F2100 X38.639 Y31.003 E242.23336
G0 F6000 X39.205 Y31.003
G1 F2100 X79.897 Y71.694 E244.14737
G0 F6000 X79.897 Y71.129
G1 F2100 X39.771 Y31.003 E246.03477
G0 F6000 X31.377 Y31.660
G1 F2100 X79.239 Y79.521 E248.28603
G0 F6000 X78.673 Y79.521
G1 F2100 X31.377 Y32.226 E250.51066
G0 F6000 X31.377 Y32.792
G1 F2100 X78.107 Y79.521 E252.70868
G0 F6000 X77.542 Y79.521
G1 F2100 X31.377 Y33.357 E254.88011
G0 F6000 X31.377 Y33.923
G1 F2100 X76.976 Y79.521 E257.02493
G0 F6000 X76.410 Y79.521
G1 F2100 X31.377 Y34.489 E259.14312
G0 F6000 X31.377 Y35.054
G1 F2100 X75.844 Y79.521 E261.23471
G0 F6000 X75.279 Y79.521
G1 F2100 X31.377 Y35.620 E263.29970
G0 F6000 X31.377 Y36.186
G1 F2100 X74.713 Y79.521 E265.33807
G0 F6000 X74.147 Y79.521
G1 F2100 X31.377 Y36.751 E267.34984
G0 F6000 X31.377 Y37.317
G1 F2100 X73.582 Y79.521 E269.33501
G0 F6000 X73.016 Y79.521
G1 F2100 X31.377 Y37.883 E271.29356
G0 F6000 X31.377 Y38.448
G1 F2100 X72.450 Y79.521 E273.22550
G0 F6000 X71.885 Y79.521
G1 F2100 X31.377 Y39.014 E275.13085
G0 F6000 X31.377 Y39.580
G1 F2100 X71.319 Y79.521 E277.00958
G0 F6000 X70.753 Y79.521
G1 F2100 X31.377 Y40.145 E278.86171
G0 F6000 X31.377 Y40.711
G1 F2100 X70.188 Y79.521 E280.68723
G0 F6000 X69.622 Y79.521
G1 F2100 X31.377 Y41.277 E282.48614
G0 F6000 X31.377 Y41.843
G1 F2100 X69.056 Y79.521 E284.25842
G0 F6000 X68.491 Y79.521
G1 F2100 X31.377 Y42.408 E286.00412
G0 F6000 X31.377 Y42.974
G1 F2100 X67.925 Y79.521 E287.72320
G0 F6000 X67.359 Y79.521
G1 F2100 X31.377 Y43.540 E289.41566
G0 F6000 X31.377 Y44.105
G1 F2100 X66.794 Y79.521 E291.08155
G0 F6000 X66.228 Y79.521
G1 F2100 X31.377 Y44.671 E292.72081
G0 F6000 X31.377 Y45.237
G1 F2100 X65.662 Y79.521 E294.33345
G0 F6000 X65.096 Y79.521
G1 F2100 X31.377 Y45.802 E295.91948
G0 F6000 X31.377 Y46.368
G1 F2100 X64.531 Y79.521 E297.47892
G0 F6000 X63.965 Y79.521
G1 F2100 X31.377 Y46.934 E299.01174
G0 F6000 X31.377 Y47.499
G1 F2100 X63.399 Y79.521 E300.51796
G0 F6000 X62.834 Y79.521
G1 F2100 X31.377 Y48.065 E301.99757
G0 F6000 X31.377 Y48.631
G1 F2100 X62.268 Y79.521 E303.45057
G0 F6000 X61.702 Y79.521
G1 F2100 X31.377 Y49.196 E304.87696
G0 F6000 X31.377 Y49.762
G1 F2100 X61.137 Y79.521 E306.27676
G0 F6000 X60.571 Y79.521
G1 F2100 X31.377 Y50.328 E307.64993
G0 F6000 X31.377 Y50.894
G1 F2100 X60.005 Y79.521 E308.99648
G0 F6000 X79.897 Y70.563
G1 F2100 X40.336 Y31.003 E310.85729
G0 F6000 X40.902 Y31.003
G1 F2100 X79.897 Y69.997 E312.69147
G0 F6000 X79.897 Y69.432
G1 F2100 X41.468 Y31.003 E314.49905
G0 F6000 X42.033 Y31.003
G1 F2100 X79.897 Y68.866 E316.28003
G0 F6000 X79.897 Y68.300
G1 F2100 X42.599 Y31.003 E318.03439
G0 F6000 X43.165 Y31.003
G1 F2100 X79.897 Y67.735 E319.76215
G0 F6000 X79.897 Y67.169
G1 F2100 X43.731 Y31.003 E321.46329
G0 F6000 X44.296 Y31.003
G1 F2100 X79.897 Y66.603 E323.13783
G0 F6000 X79.897 Y66.038
G1 F2100 X44.862 Y31.003 E324.78577
G0 F6000 X45.428 Y31.003
G1 F2100 X79.897 Y65.472 E326.40709
G0 F6000 X79.897 Y64.906
G1 F2100 X45.993 Y31.003 E328.00180
G0 F6000 X46.559 Y31.003
G1 F2100 X79.897 Y64.341 E329.56992
G0 F6000 X79.897 Y63.775
G1 F2100 X47.125 Y31.003 E331.11141
G0 F6000 X47.690 Y31.003
G1 F2100 X79.897 Y63.209 E332.62631
G0 F6000 X79.897 Y62.644
G1 F2100 X48.256 Y31.003 E334.11460
G0 F6000 X48.822 Y31.003
G1 F2100 X79.897 Y62.078 E335.57628
G0 F6000 X79.897 Y61.512
G1 F2100 X49.387 Y31.003 E337.01135
G0 F6000 X49.953 Y31.003
G1 F2100 X79.897 Y60.946 E338.41980
G0 F6000 X79.897 Y60.381
G1 F2100 X50.519 Y31.003 E339.80165
G0 F6000 X51.084 Y31.003
G1 F2100 X79.897 Y59.815 E341.15690
G0 F6000 X79.897 Y59.249
G1 F2100 X51.650 Y31.003 E342.48553
G0 F6000 X52.216 Y31.003
G1 F2100 X79.897 Y58.684 E343.78756
G0 F6000 X79.897 Y58.118
G1 F2100 X52.781 Y31.003 E345.06299
G0 F6000 X53.347 Y31.003
G1 F2100 X79.897 Y57.552 E346.31180
G0 F6000 X79.897 Y56.987
G1 F2100 X53.913 Y31.003 E347.53401
G0 F6000 X54.479 Y31.003
G1 F2100 X79.897 Y56.421 E348.72959
G0 F6000 X79.897 Y55.855
G1 F2100 X55.044 Y31.003 E349.89858
G0 F6000 X55.610 Y31.003
G1 F2100 X79.897 Y55.290 E351.04096
G0 F6000 X79.897 Y54.724
G1 F2100 X56.176 Y31.003 E352.15673
G0 F6000 X56.741 Y31.003
G1 F2100 X79.897 Y54.158 E353.24589
G0 F6000 X79.897 Y53.593
G1 F2100 X57.307 Y31.003 E354.30845
G0 F6000 X57.873 Y31.003
G1 F2100 X79.897 Y53.027 E355.34440
G0 F6000 X79.897 Y52.461
G1 F2100 X58.438 Y31.003 E356.35374
G0 F6000 X59.004 Y31.003
G1 F2100 X79.897 Y51.895 E357.33646
G0 F6000 X79.897 Y51.330
G1 F2100 X59.570 Y31.003 E358.29258
G0 F6000 X60.135 Y31.003
G1 F2100 X79.897 Y50.764 E359.22210
G0 F6000 X79.897 Y50.198
G1 F2100 X60.701 Y31.003 E360.12499
G0 F6000 X61.267 Y31.003
G1 F2100 X79.897 Y49.633 E361.00129
G0 F6000 X79.897 Y49.067
G1 F2100 X61.832 Y31.003 E361.85099
G0 F6000 X62.398 Y31.003
G1 F2100 X79.897 Y48.501 E362.67407
G0 F6000 X79.897 Y47.936
G1 F2100 X62.964 Y31.003 E363.47054
G0 F6000 X63.530 Y31.003
G1 F2100 X79.897 Y47.370 E364.24040
G0 F6000 X79.897 Y46.804
G1 F2100 X64.095 Y31.003 E364.98365
G0 F6000 X64.661 Y31.003
G1 F2100 X79.897 Y46.239 E365.70031
G0 F6000 X79.897 Y45.673
G1 F2100 X65.227 Y31.003 E366.39034
G0 F6000 X65.792 Y31.003
G1 F2100 X79.897 Y45.107 E367.05377
G0 F6000 X79.897 Y44.542
G1 F2100 X66.358 Y31.003 E367.69060
G0 F6000 X66.924 Y31.003
G1 F2100 X79.897 Y43.976 E368.30081
G0 F6000 X79.897 Y43.410
G1 F2100 X67.489 Y31.003 E368.88442
G0 F6000 X68.055 Y31.003
G1 F2100 X79.897 Y42.845 E369.44143
G0 F6000 X79.897 Y42.279
G1 F2100 X68.621 Y31.003 E369.97182
G0 F6000 X69.186 Y31.003
G1 F2100 X79.897 Y41.713 E370.47561
G0 F6000 X79.897 Y41.147
G1 F2100 X69.752 Y31.003 E370.95278
G0 F6000 X70.318 Y31.003
G1 F2100 X79.897 Y40.582 E371.40335
G0 F6000 X79.897 Y40.016
G1 F2100 X70.883 Y31.003 E371.82731
G0 F6000 X71.449 Y31.003
G1 F2100 X79.897 Y39.450 E372.22466
G0 F6000 X79.897 Y38.885
G1 F2100 X72.015 Y31.003 E372.59540
G0 F6000 X72.580 Y31.003
G1 F2100 X79.897 Y38.319 E372.93955
G0 F6000 X79.897 Y37.753
G1 F2100 X73.146 Y31.003 E373.25707
G0 F6000 X73.712 Y31.003
G1 F2100 X79.897 Y37.188 E373.54799
G0 F6000 X79.897 Y36.622
G1 F2100 X74.278 Y31.003 E373.81229
G0 F6000 X74.843 Y31.003
G1 F2100 X79.897 Y36.056 E374.05000
G0 F6000 X79.897 Y35.491
G1 F2100 X75.409 Y31.003 E374.26110
G0 F6000 X75.975 Y31.003
G1 F2100 X79.897 Y34.925 E374.44558
G0 F6000 X79.897 Y34.359
G1 F2100 X76.540 Y31.003 E374.60346
G0 F6000 X77.106 Y31.003
G1 F2100 X79.897 Y33.794 E374.73474
G0 F6000 X79.897 Y33.228
G1 F2100 X77.672 Y31.003 E374.83939
G0 F6000 X78.237 Y31.003
G1 F2100 X79.897 Y32.662 E374.91745
G0 F6000 X79.897 Y32.096
G1 F2100 X78.803 Y31.003 E374.96889
G0 F6000 X79.369 Y31.003
G1 F2100 X79.897 Y31.531 E374.99372
G0 F6000 X59.440 Y79.521
G1 F2100 X31.377 Y51.459 E376.31370
G0 F6000 X31.377 Y52.025
G1 F2100 X58.874 Y79.521 E377.60705
G0 F6000 X58.308 Y79.521
G1 F2100 X31.377 Y52.591 E378.87377
G0 F6000 X31.377 Y53.156
G1 F2100 X57.743 Y79.521 E380.11393
G0 F6000 X57.177 Y79.521
G1 F2100 X31.377 Y53.722 E381.32746
G0 F6000 X31.377 Y54.288
G1 F2100 X56.611 Y79.521 E382.51436
G0 F6000 X56.045 Y79.521
G1 F2100 X31.377 Y54.853 E383.67467
G0 F6000 X31.377 Y55.419
G1 F2100 X55.480 Y79.521 E384.80838
G0 F6000 X54.914 Y79.521
G1 F2100 X31.377 Y55.985 E385.91546
G0 F6000 X31.377 Y56.550
G1 F2100 X54.348 Y79.521 E386.99595
G0 F6000 X53.783 Y79.521
G1 F2100 X31.377 Y57.116 E388.04983
G0 F6000 X31.377 Y57.682
G1 F2100 X53.217 Y79.521 E389.07710
G0 F6000 X52.651 Y79.521
G1 F2100 X31.377 Y58.247 E390.07776
G0 F6000 X31.377 Y58.813
G1 F2100 X52.086 Y79.521 E391.05183
G0 F6000 X51.520 Y79.521
G1 F2100 X31.377 Y59.379 E391.99927
G0 F6000 X31.377 Y59.944
G1 F2100 X50.954 Y79.521 E392.92011
G0 F6000 X50.389 Y79.521
G1 F2100 X31.377 Y60.510 E393.81435
G0 F6000 X31.377 Y61.076
G1 F2100 X49.823 Y79.521 E394.68197
G0 F6000 X49.257 Y79.521
G1 F2100 X31.377 Y61.642 E395.52297
G0 F6000 X31.377 Y62.207
G1 F2100 X48.692 Y79.521 E396.33739
G0 F6000 X48.126 Y79.521
G1 F2100 X31.377 Y62.773 E397.12519
G0 F6000 X31.377 Y63.339
G1 F2100 X47.560 Y79.521 E397.88636
G0 F6000 X46.995 Y79.521
G1 F2100 X31.377 Y63.904 E398.62096
G0 F6000 X31.377 Y64.470
G1 F2100 X46.429 Y79.521 E399.32894
G0 F6000 X45.863 Y79.521
G1 F2100 X31.377 Y65.036 E400.01029
G0 F6000 X31.377 Y65.601
G1 F2100 X45.297 Y79.521 E400.66505
G0 F6000 X44.732 Y79.521
G1 F2100 X31.377 Y66.167 E401.29320
G0 F6000 X31.377 Y66.733
G1 F2100 X44.166 Y79.521 E401.89473
G0 F6000 X43.600 Y79.521
G1 F2100 X31.377 Y67.298 E402.46966
G0 F6000 X31.377 Y67.864
G1 F2100 X43.035 Y79.521 E403.01800
G0 F6000 X42.469 Y79.521
G1 F2100 X31.377 Y68.430 E403.53971
G0 F6000 X31.377 Y68.995
G1 F2100 X41.903 Y79.521 E404.03482
G0 F6000 X41.338 Y79.521
G1 F2100 X31.377 Y69.561 E404.50333
G0 F6000 X31.377 Y70.127
G1 F2100 X40.772 Y79.521 E404.94522
G0 F6000 X40.206 Y79.521
G1 F2100 X31.377 Y70.693 E405.36048
G0 F6000 X31.377 Y71.258
G1 F2100 X39.641 Y79.521 E405.74917
G0 F6000 X39.075 Y79.521
G1 F2100 X31.377 Y71.824 E406.11124
G0 F6000 X31.377 Y72.390
G1 F2100 X38.509 Y79.521 E406.44668
G0 F6000 X37.944 Y79.521
G1 F2100 X31.377 Y72.955 E406.75555
G0 F6000 X31.377 Y73.521
G1 F2100 X37.378 Y79.521 E407.03780
G0 F6000 X36.812 Y79.521
G1 F2100 X31.377 Y74.087 E407.29342
G0 F6000 X31.377 Y74.652
G1 F2100 X36.247 Y79.521 E407.52247
G0 F6000 X35.681 Y79.521
G1 F2100 X31.377 Y75.218 E407.72489
G0 F6000 X31.377 Y75.784
G1 F2100 X35.115 Y79.521 E407.90069
G0 F6000 X34.549 Y79.521
G1 F2100 X31.377 Y76.349 E408.04989
G0 F6000 X31.377 Y76.915
G1 F2100 X33.984 Y79.521 E408.17249
G0 F6000 X33.418 Y79.521
G1 F2100 X31.377 Y77.481 E408.26847
G0 F6000 X31.377 Y78.046
G1 F2100 X32.852 Y79.521 E408.33785
G0 F6000 X32.287 Y79.521
G1 F2100 X31.377 Y78.612 E408.38063
G0 F6000 X31.377 Y79.178
G1 F2100 X31.721 Y79.521 E408.39679
;LAYER:1
M106 S63
G0 F6000 X31.238 Y79.663 Z0.400
;TYPE:WALL-INNER
G1 F2160 X31.238 Y30.863 E410.01988
G1 X80.038 Y30.863 E411.64298
G1 X80.038 Y79.663 E413.26607
G1 X31.238 Y79.663 E414.88917
G0 F6000 X30.838 Y80.063
;TYPE:WALL-OUTER
G1 F2040 X30.838 Y30.463 E416.53887
G1 X80.438 Y30.463 E418.18857
G1 X80.438 Y80.063 E419.83828
G1 X30.838 Y80.063 E421.48798
G0 F6000 X31.634 Y79.522
;TYPE:SKIN
G1 F2040 X79.896 Y31.260 E423.75807
G0 F6000 X79.588 Y31.003
G1 F2040 X31.377 Y79.213 E426.02575
G0 F6000 X31.377 Y78.647
G1 F2040 X79.022 Y31.003 E428.26680
G0 F6000 X78.457 Y31.003
