;Generated with Cura_SteamEngine 15.01
; Default start code
G28 ; Home extruder
G1 Z15 F100
M107 ; Turn off fan
G90 ; Absolute positioning
M82 ; Extruder in absolute mode
M190 S20
; Activate all used extruder
M104 T0 S19
G92 E0 ; Reset extruder position
; Wait for all used extruders to reach temperature
M109 T0 S19
;Layer count: 30
;LAYER:0
M107
G0 F6000 X26.586 Y33.822 Z0.300
;TYPE:SKIRT
G1 F2100 X30.145 Y32.657 E0.18683
G1 X33.271 Y32.941 E0.34343
G1 X35.088 Y33.521 E0.43859
G1 X36.680 Y34.119 E0.52343
G1 X38.157 Y34.791 E0.60439
G1 X39.552 Y35.518 E0.68287
G1 X40.608 Y36.102 E0.74307
G1 X41.782 Y36.782 E0.81076
G1 X42.735 Y37.382 E0.86694
G1 X43.677 Y38.016 E0.92359
G1 X43.858 Y38.147 E0.93474
G1 X44.652 Y37.831 E0.97737
G1 X45.929 Y37.521 E1.04293
G1 X46.999 Y37.370 E1.09684
G1 X47.444 Y37.349 E1.11907
G1 X48.171 Y36.642 E1.16966
G1 X49.430 Y35.738 E1.24699
G1 X50.890 Y34.969 E1.32932
G1 X52.011 Y34.570 E1.38868
G1 X53.016 Y34.294 E1.44068
G1 X54.165 Y34.109 E1.49874
G1 X55.259 Y34.043 E1.55342
G1 X56.390 Y34.081 E1.60987
G1 X56.627 Y34.114 E1.62181
G1 X57.115 Y33.746 E1.65231
G1 X58.234 Y33.126 E1.71613
G1 X59.183 Y32.709 E1.76784
G1 X60.159 Y32.384 E1.81917
G1 X61.163 Y32.148 E1.87062
G1 X62.231 Y31.998 E1.92443
G1 X63.605 Y31.942 E1.99303
G1 X65.381 Y32.138 E2.08217
G1 X65.763 Y32.241 E2.10191
G1 X66.504 Y31.820 E2.14443
G1 X67.659 Y31.362 E2.20642
G1 X68.659 Y31.062 E2.25851
G1 X69.930 Y30.815 E2.32310
G1 X71.882 Y30.707 E2.42064
G1 X73.899 Y31.006 E2.52237
G1 X74.858 Y31.299 E2.57239
G1 X75.697 Y30.924 E2.61824
G1 X77.233 Y30.462 E2.69827
G1 X78.490 Y30.273 E2.76168
G1 X79.563 Y30.207 E2.81532
G1 X80.709 Y30.253 E2.87254
G1 X81.816 Y30.412 E2.92833
G1 X83.156 Y30.737 E2.99712
G1 X85.043 Y31.517 E3.09899
G1 X86.661 Y31.126 E3.18204
G1 X88.811 Y31.019 E3.28943
G1 X90.822 Y31.310 E3.39081
G1 X92.385 Y31.798 E3.47250
G1 X93.600 Y32.380 E3.53971
G1 X94.768 Y32.219 E3.59853
G1 X96.080 Y32.264 E3.66403
G1 X98.396 Y32.554 E3.78048
G1 X99.976 Y32.799 E3.86025
G1 X101.678 Y33.110 E3.94656
G1 X103.547 Y33.512 E4.04194
G1 X105.499 Y34.005 E4.14239
G1 X106.593 Y34.320 E4.19918
G1 X107.664 Y34.656 E4.25518
G1 X108.750 Y35.031 E4.31250
G1 X109.898 Y35.465 E4.37373
G1 X111.703 Y36.239 E4.47171
G1 X113.388 Y37.067 E4.56538
G1 X114.911 Y37.913 E4.65230
G1 X116.258 Y38.748 E4.73137
G1 X117.443 Y39.557 E4.80295
G1 X118.533 Y40.374 E4.87091
G1 X119.934 Y41.554 E4.96229
G1 X120.826 Y42.397 E5.02353
G1 X121.635 Y43.505 E5.09197
G1 X122.314 Y44.637 E5.15783
G1 X122.849 Y46.020 E5.23181
G1 X123.207 Y47.450 E5.30535
G1 X123.322 Y48.945 E5.38016
G1 X123.264 Y50.035 E5.43462
G1 X123.173 Y50.672 E5.46672
G1 X123.422 Y51.417 E5.50591
G1 X123.697 Y52.838 E5.57812
G1 X123.734 Y53.964 E5.63432
G1 X123.707 Y54.808 E5.67645
G1 X123.557 Y55.933 E5.73308
G1 X123.369 Y56.639 E5.76953
G1 X123.142 Y57.434 E5.81077
G1 X122.556 Y58.735 E5.88196
G1 X122.048 Y59.762 E5.93912
G1 X121.404 Y60.944 E6.00628
G1 X120.599 Y62.273 E6.08380
G1 X119.663 Y63.651 E6.16691
G1 X119.057 Y64.463 E6.21746
G1 X118.437 Y65.237 E6.26693
G1 X117.762 Y66.020 E6.31851
G1 X117.023 Y66.814 E6.37262
G1 X116.220 Y67.604 E6.42882
G1 X115.378 Y68.360 E6.48528
G1 X114.449 Y69.126 E6.54535
G1 X113.548 Y69.820 E6.60209
G1 X112.639 Y70.473 E6.65793
G1 X111.741 Y71.072 E6.71178
G1 X110.854 Y71.626 E6.76396
G1 X109.907 Y72.175 E6.81857
G1 X108.258 Y73.037 E6.91140
G1 X106.612 Y73.786 E7.00162
G1 X105.066 Y74.400 E7.08461
G1 X103.659 Y74.895 E7.15902
G1 X102.379 Y75.304 E7.22606
G1 X100.814 Y75.761 E7.30740
G1 X99.412 Y76.136 E7.37981
G1 X97.406 Y76.614 E7.48269
G1 X96.250 Y76.828 E7.54134
G1 X94.996 Y76.828 E7.60391
G1 X94.239 Y76.778 E7.64175
G1 X93.280 Y77.360 E7.69772
G1 X91.958 Y77.908 E7.76912
G1 X90.618 Y78.300 E7.83877
G1 X88.658 Y78.575 E7.93751
G1 X86.714 Y78.462 E8.03467
G1 X85.470 Y78.213 E8.09796
G1 X85.399 Y78.192 E8.10165
G1 X84.590 Y78.662 E8.14833
G1 X83.516 Y79.149 E8.20717
G1 X82.432 Y79.506 E8.26410
G1 X81.083 Y79.814 E8.33314
G1 X79.070 Y79.948 E8.43379
G1 X76.963 Y79.683 E8.53974
G1 X75.003 Y79.058 E8.64237
G1 X74.713 Y78.903 E8.65878
G1 X74.356 Y79.040 E8.67785
G1 X72.616 Y79.438 E8.76690
G1 X71.198 Y79.532 E8.83780
G1 X70.100 Y79.495 E8.89261
G1 X69.033 Y79.358 E8.94628
G1 X68.037 Y79.131 E8.99725
G1 X67.040 Y78.814 E9.04944
G1 X66.092 Y78.402 E9.10101
G1 X64.966 Y77.799 E9.16474
G1 X64.576 Y77.508 E9.18901
G1 X64.506 Y77.523 E9.19259
G1 X63.116 Y77.587 E9.26201
G1 X62.018 Y77.534 E9.31685
G1 X60.912 Y77.368 E9.37265
G1 X59.685 Y77.059 E9.43577
G1 X58.002 Y76.390 E9.52613
G1 X56.186 Y75.249 E9.63313
G1 X55.882 Y74.962 E9.65399
G1 X55.176 Y74.990 E9.68924
G1 X53.507 Y74.817 E9.77295
G1 X52.038 Y74.452 E9.84847
G1 X50.556 Y73.854 E9.92820
G1 X49.237 Y73.109 E10.00377
G1 X47.755 Y71.951 E10.09760
G1 X46.929 Y71.911 E10.13886
G1 X45.857 Y71.750 E10.19294
G1 X44.631 Y71.451 E10.25590
G1 X43.804 Y71.123 E10.30029
G1 X42.869 Y71.758 E10.35668
G1 X41.957 Y72.339 E10.41062
G1 X41.034 Y72.890 E10.46425
G1 X39.560 Y73.703 E10.54824
G1 X38.618 Y74.197 E10.60130
G1 X36.991 Y74.975 E10.69128
G1 X35.506 Y75.566 E10.77102
G1 X33.615 Y76.180 E10.87021
G1 X30.945 Y76.607 E11.00511
G1 X27.145 Y75.726 E11.19972
G1 X24.056 Y73.552 E11.38817
G1 X22.035 Y70.521 E11.56992
G1 X21.297 Y67.402 E11.72982
G1 X21.314 Y67.067 E11.74656
G1 X20.286 Y66.149 E11.81532
G1 X22.025 Y61.124 E12.08060
G1 X22.451 Y57.941 E12.24082
G1 X23.747 Y57.324 E12.31243
G1 X24.039 Y56.908 E12.33779
G1 X24.591 Y56.102 E12.38653
G1 X25.208 Y55.139 E12.44359
G1 X25.417 Y54.784 E12.46414
G1 X25.516 Y54.614 E12.47395
G1 X25.390 Y54.397 E12.48647
G1 X25.197 Y54.070 E12.50542
G1 X24.679 Y53.257 E12.55351
G1 X24.170 Y52.502 E12.59894
G1 X23.731 Y51.894 E12.63635
G1 X22.445 Y51.281 E12.70743
G1 X21.981 Y47.790 E12.88312
G1 X20.487 Y42.699 E13.14783
G1 X21.381 Y41.938 E13.20640
G1 X21.391 Y41.664 E13.22008
G1 X21.912 Y38.765 E13.36703
G1 X24.087 Y35.733 E13.55319
G1 X26.586 Y33.822 E13.71014
G0 F6000 X26.775 Y34.181
G1 F2100 X30.191 Y33.063 E13.88946
G1 X33.191 Y33.336 E14.03975
G1 X34.957 Y33.899 E14.13223
G1 X36.527 Y34.489 E14.21590
G1 X37.982 Y35.151 E14.29565
G1 X39.363 Y35.870 E14.37333
G1 X40.411 Y36.450 E14.43309
G1 X41.575 Y37.124 E14.50019
G1 X42.517 Y37.717 E14.55572
G1 X43.447 Y38.344 E14.61168
G1 X43.801 Y38.601 E14.63351
G1 X44.774 Y38.213 E14.68577
G1 X46.004 Y37.914 E14.74892
G1 X47.036 Y37.769 E14.80091
G1 X47.615 Y37.742 E14.82983
G1 X48.429 Y36.950 E14.88649
G1 X49.641 Y36.079 E14.96095
G1 X51.051 Y35.336 E15.04047
G1 X52.131 Y34.952 E15.09765
G1 X53.101 Y34.685 E15.14785
G1 X54.209 Y34.507 E15.20383
G1 X55.264 Y34.443 E15.25656
G1 X56.355 Y34.480 E15.31103
G1 X56.735 Y34.534 E15.33017
G1 X57.334 Y34.082 E15.36761
G1 X58.412 Y33.485 E15.42909
G1 X59.327 Y33.083 E15.47895
G1 X60.268 Y32.770 E15.52843
G1 X61.236 Y32.542 E15.57804
G1 X62.267 Y32.396 E15.62999
G1 X63.591 Y32.343 E15.69610
G1 X65.306 Y32.532 E15.78218
G1 X65.818 Y32.669 E15.80862
G1 X66.677 Y32.182 E15.85789
G1 X67.790 Y31.740 E15.91763
G1 X68.755 Y31.451 E15.96789
G1 X69.980 Y31.213 E16.03015
G1 X71.863 Y31.108 E16.12424
G1 X73.811 Y31.397 E16.22249
G1 X74.884 Y31.726 E16.27848
G1 X75.837 Y31.299 E16.33058
G1 X77.320 Y30.853 E16.40784
G1 X78.532 Y30.671 E16.46898
G1 X79.567 Y30.607 E16.52072
G1 X80.673 Y30.652 E16.57594
G1 X81.741 Y30.805 E16.62977
G1 X83.032 Y31.119 E16.69606
G1 X84.909 Y31.894 E16.79737
G1 X84.983 Y31.945 E16.80185
G1 X85.004 Y31.937 E16.80297
G1 X86.719 Y31.524 E16.89098
G1 X88.792 Y31.420 E16.99453
G1 X90.734 Y31.701 E17.09243
G1 X92.238 Y32.172 E17.17106
G1 X93.535 Y32.793 E17.24280
G1 X94.788 Y32.620 E17.30590
G1 X96.048 Y32.663 E17.36880
G1 X98.340 Y32.950 E17.48404
G1 X99.910 Y33.193 E17.56330
G1 X101.600 Y33.502 E17.64902
G1 X103.456 Y33.901 E17.74373
G1 X105.394 Y34.391 E17.84346
G1 X106.477 Y34.703 E17.89969
G1 X107.539 Y35.036 E17.95521
G1 X108.614 Y35.407 E18.01195
G1 X109.748 Y35.836 E18.07244
G1 X111.536 Y36.603 E18.16950
G1 X113.203 Y37.421 E18.26214
G1 X114.709 Y38.258 E18.34810
G1 X116.040 Y39.084 E18.42625
G1 X117.210 Y39.882 E18.49691
G1 X118.284 Y40.687 E18.56387
G1 X119.667 Y41.852 E18.65409
G1 X120.524 Y42.663 E18.71295
G1 X121.301 Y43.726 E18.77864
G1 X121.953 Y44.813 E18.84188
G1 X122.467 Y46.141 E18.91293
G1 X122.811 Y47.514 E18.98354
G1 X122.921 Y48.950 E19.05540
G1 X122.866 Y49.997 E19.10770
G1 X122.764 Y50.710 E19.14364
G1 X123.034 Y51.518 E19.18614
G1 X123.298 Y52.883 E19.25550
G1 X123.334 Y53.964 E19.30946
G1 X123.308 Y54.775 E19.34994
G1 X123.164 Y55.855 E19.40430
G1 X122.983 Y56.532 E19.43926
G1 X122.765 Y57.296 E19.47890
G1 X122.194 Y58.564 E19.54828
G1 X121.693 Y59.577 E19.60466
G1 X121.057 Y60.745 E19.67101
G1 X120.263 Y62.057 E19.74752
G1 X119.337 Y63.419 E19.82969
G1 X118.740 Y64.218 E19.87945
G1 X118.129 Y64.981 E19.92822
G1 X117.464 Y65.753 E19.97905
G1 X116.736 Y66.535 E20.03236
G1 X115.946 Y67.312 E20.08764
G1 X115.117 Y68.057 E20.14324
G1 X114.200 Y68.813 E20.20254
G1 X113.309 Y69.499 E20.25864
G1 X112.411 Y70.144 E20.31380
G1 X111.524 Y70.736 E20.36700
G1 X110.647 Y71.283 E20.41857
G1 X109.714 Y71.825 E20.47240
G1 X108.082 Y72.677 E20.56425
G1 X106.455 Y73.418 E20.65344
G1 X104.926 Y74.025 E20.73551
G1 X103.532 Y74.516 E20.80925
G1 X102.262 Y74.921 E20.87575
G1 X100.706 Y75.376 E20.95663
G1 X99.314 Y75.748 E21.02852
G1 X97.323 Y76.222 E21.13063
G1 X96.213 Y76.428 E21.18695
G1 X95.009 Y76.428 E21.24702
G1 X94.141 Y76.370 E21.29042
G1 X93.099 Y77.002 E21.35122
G1 X91.825 Y77.530 E21.42002
G1 X90.533 Y77.908 E21.48718
G1 X88.642 Y78.173 E21.58245
G1 X86.765 Y78.064 E21.67625
G1 X85.567 Y77.824 E21.73720
G1 X85.348 Y77.758 E21.74861
G1 X84.407 Y78.306 E21.80294
G1 X83.370 Y78.776 E21.85974
G1 X82.325 Y79.120 E21.91463
G1 X81.025 Y79.417 E21.98116
G1 X79.082 Y79.546 E22.07831
G1 X77.049 Y79.291 E22.18053
G1 X75.159 Y78.688 E22.27951
G1 X74.740 Y78.464 E22.30321
G1 X74.239 Y78.657 E22.33000
G1 X72.558 Y79.041 E22.41602
G1 X71.191 Y79.131 E22.48437
G1 X70.132 Y79.096 E22.53723
G1 X69.103 Y78.964 E22.58899
G1 X68.143 Y78.745 E22.63811
G1 X67.181 Y78.439 E22.68848
G1 X66.266 Y78.041 E22.73826
G1 X65.181 Y77.460 E22.79966
G1 X64.672 Y77.080 E22.83135
G1 X64.456 Y77.125 E22.84236
G1 X63.117 Y77.186 E22.90923
G1 X62.057 Y77.136 E22.96218
G1 X60.991 Y76.976 E23.01595
G1 X59.808 Y76.678 E23.07682
G1 X58.184 Y76.032 E23.16401
G1 X56.432 Y74.932 E23.26722
G1 X56.034 Y74.556 E23.29454
G1 X55.189 Y74.589 E23.33673
G1 X53.576 Y74.422 E23.41763
G1 X52.161 Y74.071 E23.49036
G1 X50.730 Y73.492 E23.56738
G1 X49.460 Y72.776 E23.64012
G1 X47.946 Y71.592 E23.73600
G1 X47.916 Y71.558 E23.73827
G1 X46.968 Y71.513 E23.78562
G1 X45.934 Y71.358 E23.83778
G1 X44.753 Y71.069 E23.89844
G1 X43.748 Y70.670 E23.95238
G1 X43.584 Y70.790 E23.96252
G1 X42.650 Y71.424 E24.01884
G1 X41.747 Y71.998 E24.07222
G1 X40.835 Y72.543 E24.12523
G1 X39.371 Y73.351 E24.20865
G1 X38.439 Y73.840 E24.26116
G1 X36.831 Y74.608 E24.35007
G1 X35.371 Y75.190 E24.42848
G1 X33.521 Y75.790 E24.52551
G1 X30.959 Y76.200 E24.65496
G1 X27.311 Y75.354 E24.84178
G1 X24.347 Y73.268 E25.02261
G1 X22.408 Y70.359 E25.19703
G1 X21.699 Y67.365 E25.35053
G1 X21.724 Y66.897 E25.37391
G1 X20.751 Y66.028 E25.43899
G1 X22.415 Y61.218 E25.69292
G1 X22.818 Y58.209 E25.84438
G1 X24.014 Y57.639 E25.91048
G1 X24.337 Y57.180 E25.93848
G1 X24.930 Y56.315 E25.99080
G1 X25.549 Y55.348 E26.04808
G1 X25.762 Y54.987 E26.06900
G1 X25.979 Y54.614 E26.09053
G1 X25.736 Y54.196 E26.11465
G1 X25.547 Y53.875 E26.13323
G1 X25.010 Y53.032 E26.18310
G1 X24.502 Y52.279 E26.22841
G1 X23.995 Y51.577 E26.27162
G1 X22.813 Y51.013 E26.33696
G1 X22.374 Y47.709 E26.50324
G1 X20.944 Y42.836 E26.75661
G1 X21.774 Y42.130 E26.81097
G1 X21.790 Y41.707 E26.83209
G1 X22.289 Y38.925 E26.97310
G1 X24.377 Y36.014 E27.15183
G1 X26.775 Y34.181 E27.30241
G0 F6000 X26.964 Y34.540
G1 F2100 X30.236 Y33.469 E27.47417
G1 X33.111 Y33.730 E27.61820
G1 X34.826 Y34.277 E27.70801
G1 X36.373 Y34.859 E27.79047
G1 X37.807 Y35.510 E27.86904
G1 X39.173 Y36.223 E27.94591
G1 X40.214 Y36.798 E28.00525
G1 X41.368 Y37.466 E28.07177
G1 X42.299 Y38.052 E28.12665
G1 X43.218 Y38.672 E28.18196
G1 X43.744 Y39.054 E28.21439
G1 X44.896 Y38.595 E28.27626
G1 X46.079 Y38.308 E28.33699
G1 X47.073 Y38.168 E28.38707
G1 X47.784 Y38.134 E28.42258
G1 X48.686 Y37.257 E28.48535
G1 X49.852 Y36.420 E28.55696
G1 X51.213 Y35.703 E28.63370
G1 X52.252 Y35.333 E28.68873
G1 X53.186 Y35.077 E28.73704
G1 X54.253 Y34.905 E28.79096
G1 X55.269 Y34.844 E28.84174
G1 X56.320 Y34.879 E28.89421
G1 X56.843 Y34.953 E28.92056
G1 X57.552 Y34.418 E28.96487
G1 X58.590 Y33.844 E29.02405
G1 X59.471 Y33.457 E29.07206
G1 X60.377 Y33.155 E29.11970
G1 X61.310 Y32.935 E29.16753
G1 X62.303 Y32.795 E29.21756
G1 X63.577 Y32.744 E29.28117
G1 X65.232 Y32.927 E29.36424
G1 X65.872 Y33.099 E29.39730
G1 X66.850 Y32.543 E29.45343
G1 X67.922 Y32.118 E29.51096
G1 X68.851 Y31.840 E29.55934
G1 X70.029 Y31.611 E29.61921
G1 X71.845 Y31.510 E29.70995
G1 X73.722 Y31.789 E29.80462
G1 X74.910 Y32.152 E29.86660
G1 X75.977 Y31.675 E29.92491
G1 X77.408 Y31.244 E29.99947
G1 X78.574 Y31.070 E30.05829
G1 X79.571 Y31.008 E30.10812
G1 X80.636 Y31.051 E30.16130
G1 X81.665 Y31.198 E30.21316
G1 X82.907 Y31.500 E30.27693
G1 X84.717 Y32.248 E30.37463
G1 X84.930 Y32.394 E30.38752
G1 X85.123 Y32.320 E30.39783
G1 X86.776 Y31.921 E30.48267
G1 X88.773 Y31.822 E30.58242
G1 X90.645 Y32.093 E30.67679
G1 X92.091 Y32.545 E30.75237
G1 X93.471 Y33.206 E30.82871
G1 X94.809 Y33.021 E30.89610
G1 X96.016 Y33.062 E30.95635
G1 X98.285 Y33.346 E31.07043
G1 X99.843 Y33.588 E31.14910
G1 X101.522 Y33.895 E31.23425
G1 X103.365 Y34.291 E31.32830
G1 X105.290 Y34.777 E31.42735
G1 X106.362 Y35.086 E31.48301
G1 X107.414 Y35.416 E31.53801
G1 X108.478 Y35.784 E31.59418
G1 X109.599 Y36.207 E31.65396
G1 X111.369 Y36.966 E31.75004
G1 X113.017 Y37.776 E31.84165
G1 X114.506 Y38.603 E31.92663
G1 X115.822 Y39.419 E32.00388
G1 X116.977 Y40.208 E32.07367
G1 X118.035 Y41.000 E32.13960
G1 X119.401 Y42.151 E32.22872
G1 X120.223 Y42.928 E32.28515
G1 X120.967 Y43.947 E32.34810
G1 X121.593 Y44.989 E32.40874
G1 X122.085 Y46.263 E32.47688
G1 X122.414 Y47.578 E32.54451
G1 X122.520 Y48.955 E32.61341
G1 X122.467 Y49.958 E32.66352
G1 X122.366 Y50.669 E32.69935
G1 X122.352 Y50.737 E32.70281
G1 X122.646 Y51.620 E32.74924
G1 X122.899 Y52.928 E32.81571
G1 X122.934 Y53.964 E32.86742
G1 X122.909 Y54.742 E32.90626
G1 X122.771 Y55.776 E32.95830
G1 X122.598 Y56.426 E32.99186
G1 X122.388 Y57.158 E33.02985
G1 X121.832 Y58.394 E33.09747
G1 X121.338 Y59.393 E33.15307
G1 X120.710 Y60.545 E33.21853
G1 X119.926 Y61.841 E33.29409
G1 X119.011 Y63.187 E33.37529
G1 X118.424 Y63.973 E33.42424
G1 X117.821 Y64.726 E33.47236
G1 X117.166 Y65.486 E33.52242
G1 X116.449 Y66.255 E33.57487
G1 X115.672 Y67.021 E33.62931
G1 X114.856 Y67.753 E33.68400
G1 X113.950 Y68.500 E33.74258
G1 X113.071 Y69.178 E33.79797
G1 X112.183 Y69.815 E33.85249
G1 X111.307 Y70.399 E33.90501
G1 X110.441 Y70.940 E33.95596
G1 X109.521 Y71.474 E34.00903
G1 X107.906 Y72.318 E34.09994
G1 X106.298 Y73.050 E34.18808
G1 X104.786 Y73.650 E34.26924
G1 X103.405 Y74.137 E34.34230
G1 X102.145 Y74.539 E34.40828
G1 X100.598 Y74.991 E34.48869
G1 X99.216 Y75.360 E34.56005
G1 X97.240 Y75.831 E34.66140
G1 X96.176 Y76.028 E34.71538
G1 X95.022 Y76.028 E34.77295
G1 X94.105 Y75.967 E34.81880
G1 X94.051 Y75.956 E34.82155
G1 X92.917 Y76.644 E34.88773
G1 X91.691 Y77.152 E34.95394
G1 X90.449 Y77.516 E35.01851
G1 X88.626 Y77.772 E35.11035
G1 X86.816 Y77.666 E35.20080
G1 X85.664 Y77.436 E35.25941
G1 X85.297 Y77.326 E35.27853
G1 X84.223 Y77.950 E35.34050
G1 X83.225 Y78.403 E35.39518
